dashboard/assets/pic-55-79b6a45e5d4c9ea0.svg

<svg xmlns="http://www.w3.org/2000/svg" viewBox="0 0 28.04 28.04"><g data-name="图层 2"><path d="M28 14a14 14 0 00-28 0v.13A14 14 0 0028 14zm-11.7 9.77a19 19 0 01-2 .14v-3.68c.93 0 1.84-.05 2.71-.14a29.11 29.11 0 01-.67 3.6.31.31 0 00-.04.08zm-4.55-19.5a19 19 0 012-.14v3.68c-.93 0-1.83.06-2.71.14a27.58 27.58 0 01.68-3.6.31.31 0 01.03-.08zm12.78 9.49v-.89a13.69 13.69 0 012.13.55 3 3 0 01.7.34zm-.52 0h-2.92c0-.45 0-.91-.05-1.35 1 .09 1.88.2 2.68.33h.25c.03.37.03.69.03 1.02zm-3.44 0h-2.69v-1.57c.94 0 1.83.1 2.67.17 0 .46.02.93.02 1.4zm-3.21 0h-3.08v-1.65c1.05 0 2.07 0 3 .06q.08.83.08 1.59zm-3.08-2.17V8.33c1 0 1.88.06 2.78.15.12 1 .2 2.06.25 3.17-.97-.04-1.99-.06-3.03-.06zm0-3.78V4.13a19 19 0 012 .14A27.9 27.9 0 0117 8c-.88-.13-1.79-.18-2.72-.19zm0-4.19V.56a2 2 0 01.92.92 9 9 0 01.94 2.25c-.6-.07-1.23-.1-1.86-.11zm-.52 0c-.63 0-1.25 0-1.86.11a9.39 9.39 0 01.94-2.25 2.14 2.14 0 01.92-.92zm0 4.71v3.26q-1.56 0-3 .06c0-1.11.14-2.18.26-3.18.86-.09 1.79-.13 2.74-.14zm0 3.78v1.65h-3.08v-1.59c1.01-.04 2.03-.06 3.08-.06zm-3.59 1.65h-2.7v-1.4c.84-.07 1.74-.13 2.68-.17.03.52.02 1.04.02 1.57zm-3.17 0H4v-1q.58-.1 1.23-.18c.53-.07 1.1-.13 1.7-.19.07.46.07.92.07 1.37zm-3.44 0H.73a8.49 8.49 0 012.82-.89c-.02.3-.03.59-.03.89zm0 .52v.89a13.36 13.36 0 01-2.12-.54 3.21 3.21 0 01-.7-.35zm.51 0H7v1.35c-1-.09-1.87-.2-2.67-.32l-.26-.05c-.02-.32-.07-.65-.07-.98zm3.44 0h2.7v1.57c-.94 0-1.84-.1-2.68-.17-.04-.46-.05-.93-.06-1.4zm3.21 0h3.08v1.66c-1 0-2.07 0-3-.06-.11-.53-.12-1.06-.12-1.6zm3.08 2.18v3.25a27.61 27.61 0 01-2.8-.14c-.12-1-.21-2.07-.26-3.18.97.04 1.98.06 3.02.07zm0 3.77v3.68a19 19 0 01-2-.14 29.52 29.52 0 01-.7-3.68c.83.09 1.73.13 2.66.14zm0 4.2v3.05a2.16 2.16 0 01-.92-.91 9.67 9.67 0 01-.94-2.26q.88.11 1.82.12zm2.38-.12a9.67 9.67 0 01-.94 2.26 2.06 2.06 0 01-.92.91v-3.05c.59-.01 1.22-.05 1.82-.12zm-1.86-4.59v-3.26c1 0 2.06 0 3-.07 0 1.12-.14 2.18-.25 3.18-.91.09-1.84.14-2.79.15zm0-3.78v-1.66h3.08v1.6c-1.05.03-2.07.06-3.12.06zm3.6-1.66h2.69c0 .47 0 .94-.05 1.4-.84.07-1.73.13-2.67.17-.02-.51-.01-1.04-.01-1.57zm3.21 0H24v1l-1.23.18c-.53.07-1.1.13-1.7.19 0-.46.01-.91.02-1.37zm3.44 0h2.79a8.11 8.11 0 01-2.83.89c-.02-.29-.01-.59 0-.89zm-.08-1.94a17.32 17.32 0 00-.3-2.06 8.38 8.38 0 012.37 1.61 3.53 3.53 0 01.86 1.31 10.29 10.29 0 00-2.97-.86zm-.52-.09l-1.12-.16c-.56-.08-1.17-.14-1.8-.2a24.63 24.63 0 00-.37-2.82 19.8 19.8 0 012.93.94 20.12 20.12 0 01.32 2.24zm-3.44-.41c-.84-.07-1.73-.13-2.66-.17 0-1.09-.13-2.15-.25-3.14.88.1 1.71.24 2.51.41a25.66 25.66 0 01.36 2.9zM17.52 8a30.59 30.59 0 00-.67-3.66 17.38 17.38 0 011.93.41A18.85 18.85 0 0120 8.39c-.81-.16-1.63-.29-2.48-.39zm-.82-4.2a10.58 10.58 0 00-1.06-2.6 3.83 3.83 0 00-.27-.39 7 7 0 013.1 3.34c-.57-.15-1.16-.26-1.77-.35zm-4.3-2.6a10.81 10.81 0 00-1.06 2.6c-.6.09-1.19.21-1.77.35a7.07 7.07 0 013.1-3.34q-.13.19-.27.39zm-1.21 3.15A30.77 30.77 0 0010.52 8c-.85.1-1.67.23-2.45.39a18.84 18.84 0 011.2-3.63 16.74 16.74 0 011.92-.41zm-.73 4.18c-.11 1-.19 2.05-.24 3.14-.93 0-1.82.1-2.66.17A23.57 23.57 0 018 8.94c.75-.17 1.59-.31 2.46-.41zM7 11.89c-1 .09-2 .21-2.79.34h-.13a16.1 16.1 0 01.4-2.23 19.43 19.43 0 012.93-.94A24.63 24.63 0 007 11.89zm-3.45.45a14.09 14.09 0 00-2.34.59 5.6 5.6 0 00-.59.27 3.66 3.66 0 01.86-1.31 8.11 8.11 0 012.42-1.61 17.32 17.32 0 00-.31 2.06zm0 3.36a17.19 17.19 0 00.31 2.07 8.51 8.51 0 01-2.38-1.61 3.78 3.78 0 01-.86-1.32 10.07 10.07 0 002.97.86zm.53.09l1.15.21c.57.07 1.17.14 1.81.2a24.92 24.92 0 00.37 2.8 18.33 18.33 0 01-2.93-1 16.1 16.1 0 01-.36-2.21zm3.44.41c.84.07 1.73.13 2.66.17 0 1.1.13 2.15.24 3.14-.87-.1-1.71-.24-2.5-.41a23.57 23.57 0 01-.36-2.9zm3 3.84a30.85 30.85 0 00.68 3.66 18.79 18.79 0 01-1.93-.42 18.62 18.62 0 01-1.2-3.63c.78.16 1.6.29 2.45.35zm.82 4.2a10.81 10.81 0 001.06 2.6q.13.21.27.39a7 7 0 01-3.1-3.34 17.31 17.31 0 001.77.35zm4.3 2.6a10.42 10.42 0 001.06-2.6 16.3 16.3 0 001.77-.35 7 7 0 01-3.1 3.34 3.83 3.83 0 00.27-.39zm1.21-3.14a31 31 0 00.67-3.7 22.8 22.8 0 002.48-.35 18.62 18.62 0 01-1.19 3.63c-.66.17-1.3.31-1.96.42zm.73-4.19c.12-1 .2-2 .25-3.14.93 0 1.82-.1 2.66-.17a25.66 25.66 0 01-.4 2.9c-.8.17-1.63.31-2.51.41zM21 16.16c1-.1 1.95-.21 2.78-.34h.14a19.75 19.75 0 01-.35 2.18 18.67 18.67 0 01-2.93.95 24.92 24.92 0 00.36-2.79zm3.44-.46a13.84 13.84 0 002.34-.59 3 3 0 00.59-.27 3.65 3.65 0 01-.86 1.32 8.38 8.38 0 01-2.37 1.61 17.19 17.19 0 00.31-2.07zm2.44-4.18A9.52 9.52 0 0024 9.64a16.77 16.77 0 00-1.07-3 7.66 7.66 0 01.66.45 9.55 9.55 0 013.61 4.83zm-3.47-2.13a20.81 20.81 0 00-2.88-.88A19 19 0 0019.42 5a14.79 14.79 0 012.69 1.1 15.45 15.45 0 011.3 3.29zm-4.27-5.06s-.05-.1-.07-.16A9.21 9.21 0 0016.65 1a9.84 9.84 0 014.41 3.45q.3.4.57.84a16 16 0 00-2.49-.96zM9 4.17l-.08.16a16.44 16.44 0 00-2.49 1q.27-.43.57-.84A10 10 0 0111.39 1 9.2 9.2 0 009 4.17zM8.62 5a19.74 19.74 0 00-1.1 3.55 20.54 20.54 0 00-2.89.88 15.45 15.45 0 011.3-3.33A15.1 15.1 0 018.62 5zM4 9.64a9.52 9.52 0 00-2.88 1.88c-.12.12-.22.24-.32.36a9.59 9.59 0 013.6-4.83c.22-.16.44-.31.67-.45A15.61 15.61 0 004 9.64zm-2.84 6.88A9.33 9.33 0 004 18.4a15.7 15.7 0 001.07 3.05L4.44 21a9.55 9.55 0 01-3.6-4.83 3.59 3.59 0 00.32.35zm3.47 2.13a19.29 19.29 0 002.89.89 20 20 0 001.1 3.55 15.12 15.12 0 01-2.69-1.15 15.25 15.25 0 01-1.3-3.29zm4.27 5.06c0 .06 0 .11.08.16a9.1 9.1 0 002.41 3.18A9.88 9.88 0 017 23.6q-.3-.41-.57-.84a15.45 15.45 0 002.47.95zm10.17.16c0-.05.05-.1.07-.16a15.1 15.1 0 002.49-.95q-.27.43-.57.84a9.77 9.77 0 01-4.41 3.45 9.12 9.12 0 002.42-3.18zm.35-.78a19.08 19.08 0 001.11-3.56 19.53 19.53 0 002.88-.88 15.25 15.25 0 01-1.3 3.29 14.82 14.82 0 01-2.69 1.15zM24 18.4a9.33 9.33 0 002.88-1.88c.11-.12.22-.23.32-.36A9.51 9.51 0 0123.6 21c-.21.16-.43.31-.66.46A17.15 17.15 0 0024 18.4zm-.43-13.93a13.4 13.4 0 013.29 5.37 10.89 10.89 0 00-2.95-3.2 13.59 13.59 0 00-1.41-.91 12.71 12.71 0 00-1-1.59 11 11 0 00-3.2-2.93 13.5 13.5 0 015.27 3.26zm-19.1 0a13.61 13.61 0 015.28-3.26 10.88 10.88 0 00-3.18 2.93 12.71 12.71 0 00-1 1.59 12.61 12.61 0 00-1.41.91 10.79 10.79 0 00-3 3.2 13.63 13.63 0 013.31-5.37zm0 19.1a13.59 13.59 0 01-3.29-5.36 11 11 0 003 3.2 14.2 14.2 0 001.41.91 14.36 14.36 0 001 1.59 10.84 10.84 0 003.18 2.92 13.49 13.49 0 01-5.3-3.26zm19.1 0a13.38 13.38 0 01-5.27 3.26 11 11 0 003.18-2.92 14.36 14.36 0 001-1.59 15.47 15.47 0 001.41-.91 11 11 0 002.95-3.2 13.37 13.37 0 01-3.27 5.36z" fill="#375d81" data-name="Layer 1"/></g></svg>

<svg xmlns="http://www.w3.org/2000/svg" viewBox="0 0 28.04 28.04"><defs><style>.cls-1{fill:#375d81;}</style></defs><title>资源 11</title><g id="图层_2" data-name="图层 2"><g id="Layer_1" data-name="Layer 1"><path class="cls-1" d="M28,14h0A14,14,0,0,0,0,14v.13A14,14,0,0,0,28,14ZM16.3,23.77a19,19,0,0,1-2,.14V20.23c.93,0,1.84-.05,2.71-.14a29.11,29.11,0,0,1-.67,3.6A.31.31,0,0,0,16.3,23.77ZM11.75,4.27a19,19,0,0,1,2-.14V7.81c-.93,0-1.83.06-2.71.14a27.58,27.58,0,0,1,.68-3.6A.31.31,0,0,1,11.75,4.27Zm12.78,9.49c0-.3,0-.59,0-.89a13.69,13.69,0,0,1,2.13.55,3,3,0,0,1,.7.34Zm-.52,0H21.09c0-.45,0-.91-.05-1.35,1,.09,1.88.2,2.68.33l.25,0C24,13.11,24,13.43,24,13.76Zm-3.44,0H17.88c0-.53,0-1,0-1.57.94,0,1.83.1,2.67.17C20.55,12.82,20.57,13.29,20.57,13.76Zm-3.21,0H14.28V12.11c1.05,0,2.07,0,3,.06Q17.36,13,17.36,13.76Zm-3.08-2.17V8.33c1,0,1.88.06,2.78.15.12,1,.2,2.06.25,3.17C16.34,11.61,15.32,11.59,14.28,11.59Zm0-3.78V4.13a19,19,0,0,1,2,.14A27.9,27.9,0,0,1,17,8C16.12,7.87,15.21,7.82,14.28,7.81Zm0-4.19V.56a2,2,0,0,1,.92.92,9,9,0,0,1,.94,2.25C15.54,3.66,14.91,3.63,14.28,3.62Zm-.52,0c-.63,0-1.25,0-1.86.11a9.39,9.39,0,0,1,.94-2.25,2.14,2.14,0,0,1,.92-.92Zm0,4.71v3.26q-1.56,0-3,.06c0-1.11.14-2.18.26-3.18C11.88,8.38,12.81,8.34,13.76,8.33Zm0,3.78v1.65H10.68c0-.54,0-1.07,0-1.59C11.69,12.13,12.71,12.11,13.76,12.11Zm-3.59,1.65H7.47c0-.47,0-.94,0-1.4.84-.07,1.74-.13,2.68-.17C10.18,12.71,10.17,13.23,10.17,13.76ZM7,13.76H4c0-.33,0-.66,0-1q.58-.1,1.23-.18c.53-.07,1.1-.13,1.7-.19C7,12.85,7,13.31,7,13.76Zm-3.44,0H.73a8.49,8.49,0,0,1,2.82-.89C3.53,13.17,3.52,13.46,3.52,13.76Zm0,.52c0,.3,0,.6,0,.89a13.36,13.36,0,0,1-2.12-.54,3.21,3.21,0,0,1-.7-.35Zm.51,0H7c0,.46,0,.91,0,1.35-1-.09-1.87-.2-2.67-.32l-.26-.05C4.05,14.94,4,14.61,4,14.28Zm3.44,0h2.7c0,.53,0,1.06,0,1.57-.94,0-1.84-.1-2.68-.17C7.49,15.22,7.48,14.75,7.47,14.28Zm3.21,0h3.08v1.66c-1,0-2.07,0-3-.06C10.69,15.35,10.68,14.82,10.68,14.28Zm3.08,2.18v3.25A27.61,27.61,0,0,1,11,19.57c-.12-1-.21-2.07-.26-3.18C11.71,16.43,12.72,16.45,13.76,16.46Zm0,3.77v3.68a19,19,0,0,1-2-.14,29.52,29.52,0,0,1-.7-3.68C11.93,20.18,12.83,20.22,13.76,20.23Zm0,4.2v3.05a2.16,2.16,0,0,1-.92-.91,9.67,9.67,0,0,1-.94-2.26Q12.82,24.42,13.76,24.43Zm2.38-.12a9.67,9.67,0,0,1-.94,2.26,2.06,2.06,0,0,1-.92.91V24.43C14.91,24.42,15.54,24.38,16.14,24.31Zm-1.86-4.59V16.46c1,0,2.06,0,3-.07,0,1.12-.14,2.18-.25,3.18C16.16,19.66,15.23,19.71,14.28,19.72Zm0-3.78V14.28h3.08c0,.54,0,1.07,0,1.6C16.35,15.91,15.33,15.94,14.28,15.94Zm3.6-1.66h2.69c0,.47,0,.94-.05,1.4-.84.07-1.73.13-2.67.17C17.87,15.34,17.88,14.81,17.88,14.28Zm3.21,0H24c0,.33,0,.66,0,1l-1.23.18c-.53.07-1.1.13-1.7.19C21.07,15.19,21.08,14.74,21.09,14.28Zm3.44,0h2.79a8.11,8.11,0,0,1-2.83.89C24.51,14.88,24.52,14.58,24.53,14.28Zm-.08-1.94a17.32,17.32,0,0,0-.3-2.06,8.38,8.38,0,0,1,2.37,1.61,3.53,3.53,0,0,1,.86,1.31A10.29,10.29,0,0,0,24.45,12.34Zm-.52-.09-1.12-.16c-.56-.08-1.17-.14-1.8-.2a24.63,24.63,0,0,0-.37-2.82,19.8,19.8,0,0,1,2.93.94A20.12,20.12,0,0,1,23.93,12.25Zm-3.44-.41c-.84-.07-1.73-.13-2.66-.17,0-1.09-.13-2.15-.25-3.14.88.1,1.71.24,2.51.41A25.66,25.66,0,0,1,20.49,11.84ZM17.52,8a30.59,30.59,0,0,0-.67-3.66,17.38,17.38,0,0,1,1.93.41A18.85,18.85,0,0,1,20,8.39C19.19,8.23,18.37,8.1,17.52,8ZM16.7,3.8a10.58,10.58,0,0,0-1.06-2.6,3.83,3.83,0,0,0-.27-.39,7,7,0,0,1,3.1,3.34C17.9,4,17.31,3.89,16.7,3.8ZM12.4,1.2a10.81,10.81,0,0,0-1.06,2.6c-.6.09-1.19.21-1.77.35A7.07,7.07,0,0,1,12.67.81Q12.54,1,12.4,1.2ZM11.19,4.35A30.77,30.77,0,0,0,10.52,8c-.85.1-1.67.23-2.45.39a18.84,18.84,0,0,1,1.2-3.63A16.74,16.74,0,0,1,11.19,4.35Zm-.73,4.18c-.11,1-.19,2.05-.24,3.14-.93,0-1.82.1-2.66.17A23.57,23.57,0,0,1,8,8.94C8.75,8.77,9.59,8.63,10.46,8.53ZM7,11.89c-1,.09-2,.21-2.79.34l-.13,0A16.1,16.1,0,0,1,4.48,10a19.43,19.43,0,0,1,2.93-.94A24.63,24.63,0,0,0,7,11.89Zm-3.45.45a14.09,14.09,0,0,0-2.34.59,5.6,5.6,0,0,0-.59.27,3.66,3.66,0,0,1,.86-1.31A8.11,8.11,0,0,1,3.9,10.28,17.32,17.32,0,0,0,3.59,12.34Zm0,3.36a17.19,17.19,0,0,0,.31,2.07,8.51,8.51,0,0,1-2.38-1.61,3.78,3.78,0,0,1-.86-1.32A10.07,10.07,0,0,0,3.59,15.7Zm.53.09L5.23,16c.57.07,1.17.14,1.81.2A24.92,24.92,0,0,0,7.41,19,18.33,18.33,0,0,1,4.48,18,16.1,16.1,0,0,1,4.12,15.79Zm3.44.41c.84.07,1.73.13,2.66.17,0,1.1.13,2.15.24,3.14-.87-.1-1.71-.24-2.5-.41A23.57,23.57,0,0,1,7.56,16.2Zm3,3.84a30.85,30.85,0,0,0,.68,3.66,18.79,18.79,0,0,1-1.93-.42,18.62,18.62,0,0,1-1.2-3.63C8.85,19.81,9.67,19.94,10.52,20Zm.82,4.2a10.81,10.81,0,0,0,1.06,2.6q.13.21.27.39a7,7,0,0,1-3.1-3.34A17.31,17.31,0,0,0,11.34,24.24Zm4.3,2.6a10.42,10.42,0,0,0,1.06-2.6,16.3,16.3,0,0,0,1.77-.35,7,7,0,0,1-3.1,3.34A3.83,3.83,0,0,0,15.64,26.84Zm1.21-3.14A31,31,0,0,0,17.52,20,22.8,22.8,0,0,0,20,19.65a18.62,18.62,0,0,1-1.19,3.63C18.15,23.45,17.51,23.59,16.85,23.7Zm.73-4.19c.12-1,.2-2,.25-3.14.93,0,1.82-.1,2.66-.17a25.66,25.66,0,0,1-.4,2.9C19.29,19.27,18.46,19.41,17.58,19.51ZM21,16.16c1-.1,1.95-.21,2.78-.34l.14,0A19.75,19.75,0,0,1,23.57,18a18.67,18.67,0,0,1-2.93.95A24.92,24.92,0,0,0,21,16.16Zm3.44-.46a13.84,13.84,0,0,0,2.34-.59,3,3,0,0,0,.59-.27,3.65,3.65,0,0,1-.86,1.32,8.38,8.38,0,0,1-2.37,1.61A17.19,17.19,0,0,0,24.45,15.7Zm2.44-4.18A9.52,9.52,0,0,0,24,9.64a16.77,16.77,0,0,0-1.07-3,7.66,7.66,0,0,1,.66.45,9.55,9.55,0,0,1,3.61,4.83ZM23.41,9.39a20.81,20.81,0,0,0-2.88-.88A19,19,0,0,0,19.42,5,14.79,14.79,0,0,1,22.11,6.1,15.45,15.45,0,0,1,23.41,9.39ZM19.14,4.33s-.05-.1-.07-.16A9.21,9.21,0,0,0,16.65,1a9.84,9.84,0,0,1,4.41,3.45q.3.4.57.84A16,16,0,0,0,19.14,4.33ZM9,4.17l-.08.16a16.44,16.44,0,0,0-2.49,1q.27-.43.57-.84A10,10,0,0,1,11.39,1,9.2,9.2,0,0,0,9,4.17ZM8.62,5a19.74,19.74,0,0,0-1.1,3.55,20.54,20.54,0,0,0-2.89.88A15.45,15.45,0,0,1,5.93,6.1,15.1,15.1,0,0,1,8.62,5ZM4,9.64a9.52,9.52,0,0,0-2.88,1.88c-.12.12-.22.24-.32.36a9.59,9.59,0,0,1,3.6-4.83c.22-.16.44-.31.67-.45A15.61,15.61,0,0,0,4,9.64ZM1.16,16.52A9.33,9.33,0,0,0,4,18.4a15.7,15.7,0,0,0,1.07,3.05L4.44,21a9.55,9.55,0,0,1-3.6-4.83A3.59,3.59,0,0,0,1.16,16.52Zm3.47,2.13a19.29,19.29,0,0,0,2.89.89,20,20,0,0,0,1.1,3.55,15.12,15.12,0,0,1-2.69-1.15A15.25,15.25,0,0,1,4.63,18.65ZM8.9,23.71c0,.06,0,.11.08.16a9.1,9.1,0,0,0,2.41,3.18A9.88,9.88,0,0,1,7,23.6q-.3-.41-.57-.84A15.45,15.45,0,0,0,8.9,23.71Zm10.17.16c0-.05.05-.1.07-.16a15.1,15.1,0,0,0,2.49-.95q-.27.43-.57.84a9.77,9.77,0,0,1-4.41,3.45A9.12,9.12,0,0,0,19.07,23.87Zm.35-.78a19.08,19.08,0,0,0,1.11-3.56,19.53,19.53,0,0,0,2.88-.88,15.25,15.25,0,0,1-1.3,3.29A14.82,14.82,0,0,1,19.42,23.09ZM24,18.4a9.33,9.33,0,0,0,2.88-1.88c.11-.12.22-.23.32-.36A9.51,9.51,0,0,1,23.6,21c-.21.16-.43.31-.66.46A17.15,17.15,0,0,0,24,18.4ZM23.57,4.47a13.4,13.4,0,0,1,3.29,5.37,10.89,10.89,0,0,0-2.95-3.2,13.59,13.59,0,0,0-1.41-.91,12.71,12.71,0,0,0-1-1.59A11,11,0,0,0,18.3,1.21,13.5,13.5,0,0,1,23.57,4.47Zm-19.1,0A13.61,13.61,0,0,1,9.75,1.21,10.88,10.88,0,0,0,6.57,4.14a12.71,12.71,0,0,0-1,1.59,12.61,12.61,0,0,0-1.41.91,10.79,10.79,0,0,0-3,3.2A13.63,13.63,0,0,1,4.47,4.47Zm0,19.1a13.59,13.59,0,0,1-3.29-5.36,11,11,0,0,0,3,3.2,14.2,14.2,0,0,0,1.41.91,14.36,14.36,0,0,0,1,1.59,10.84,10.84,0,0,0,3.18,2.92A13.49,13.49,0,0,1,4.47,23.57Zm19.1,0a13.38,13.38,0,0,1-5.27,3.26,11,11,0,0,0,3.18-2.92,14.36,14.36,0,0,0,1-1.59,15.47,15.47,0,0,0,1.41-.91,11,11,0,0,0,2.95-3.2A13.37,13.37,0,0,1,23.57,23.57Z"/></g></g></svg>
